icons/banking/icon_account-shared_m_white.svg

<?xml version="1.0" encoding="UTF-8"?>
<svg width="24px" height="24px" viewBox="0 0 24 24" version="1.1" xmlns="http://www.w3.org/2000/svg" xmlns:xlink="http://www.w3.org/1999/xlink">
    <!-- Generator: Sketch 46.2 (44496) - http://www.bohemiancoding.com/sketch -->
    <title>icon_account-shared_m_white@2x</title>
    <desc>Created with Sketch.</desc>
    <defs></defs>
    <g id="Symbols" stroke="none" stroke-width="1" fill="none" fill-rule="evenodd">
        <g id="icon_account-shared_m_white">
            <g>
                <rect id="_ph_" x="0" y="0" width="24" height="24"></rect>
                <path d="M14.9997,11 L15.9997,11 C15.9977,13.209 14.2067,15 11.9967,15 L5.0037,15 C2.7927,15 0.9997,13.208 0.9997,10.997 L0.9997,8.003 C0.9997,5.792 2.7927,4 5.0037,4 L11.9967,4 C14.2067,4 15.9977,5.791 15.9997,8 L14.9997,8 C14.9977,6.345 13.6517,5 11.9967,5 L5.0037,5 C3.3477,5 1.9997,6.347 1.9997,8.003 L1.9997,10.997 C1.9997,12.653 3.3477,14 5.0037,14 L11.9967,14 C13.6517,14 14.9977,12.655 14.9997,11 Z M18.9968,9 C21.2078,9 22.9998,10.792 22.9998,13.003 L22.9998,15.997 C22.9998,18.208 21.2078,20 18.9968,20 L12.0038,20 C9.7938,20 8.0018,18.209 8.0008,16 L9.0008,16 C9.0018,17.655 10.3488,19 12.0038,19 L18.9968,19 C20.6528,19 21.9998,17.653 21.9998,15.997 L21.9998,13.003 C21.9998,11.347 20.6528,10 18.9968,10 L12.0038,10 C10.3488,10 9.0018,11.345 9.0008,13 L8.0008,13 C8.0018,10.791 9.7938,9 12.0038,9 L18.9968,9 Z" id="Combined-Shape" fill="#FFFFFF"></path>
            </g>
        </g>
    </g>
</svg>

<svg width="24" height="24" viewBox="0 0 24 24" xmlns="http://www.w3.org/2000/svg">
  <g fill="none" fill-rule="evenodd">
    <path d="M0 0h24v24H0z"/>
    <path d="M15 11h1c-.002 2.21-1.793 4-4.003 4H5.004C2.794 15 1 13.208 1 10.997V8.003C1 5.793 2.793 4 5.004 4h6.993c2.21 0 4 1.79 4.003 4h-1c-.002-1.655-1.348-3-3.003-3H5.004C3.348 5 2 6.347 2 8.003v2.994C2 12.653 3.348 14 5.004 14h6.993c1.655 0 3-1.345 3.003-3zm3.997-2C21.207 9 23 10.792 23 13.003v2.994C23 18.207 21.208 20 18.997 20h-6.993C9.794 20 8.002 18.21 8 16h1c.002 1.655 1.35 3 3.004 3h6.993C20.653 19 22 17.653 22 15.997v-2.994C22 11.347 20.653 10 18.997 10h-6.993C10.35 10 9.002 11.345 9 13H8c.002-2.21 1.794-4 4.004-4h6.993z" fill="#FFF"/>
  </g>
</svg>
